X: 10094
T: RUSSELL'S REEL
C: Bob McQuillen 9 Nov 93
B: Bob's Note Book 10 #94
%R: reel
Z: 2020 John Chambers <jc:trillian.mit.edu>
M: C
L: 1/8
K: G	% and Em
DE \
| G2G2 AGED | B2dB cBAG | BGBd gedB | cABG AGED |\
| G2GB AGED | GABd cBAG | BGBd gedc | BGAF G2  :|
|: GF \
| E2EG BGED | E2GB AGED | E2DE GABd | edBA B2Bd |\
| e2ge dBGA | BdBG AGED | EGBd edBA | GEFD E2  :|
%%begintext align
%% I always enjoy calling the
%% Orzechowskis because usually Russell, age 8, answers the
%% phone, and it's fun to visit with him. Sometimes I try to disguise
%% my voice but he alway seems to know who it is. I'm beginning
%% to wonder if he knows who's calling _before_ he picks it up!? Good
%% luck to you, Russell - I hope you like Russell's Reel. It's a real reel!
%% (:-)
%%endtext

%%sep 1 1 500

%%sep 1 1 500

